X: 1035
T:(Psalm) Pm 40 N.V. (New Version)
M:2/2
L:1/4
S:Armitt MS
K:C major
G2cB|(c/2d/2c/2d/2e)c|(fe)d2|c3z|z4|z2zG|cBcd|ede(e/2d/2)|c3B|c4||c2ee|d
3e|d2^c2|d3z|z2zG|cccA|BGcd|eee(e/2d/2)|c3Bc4||
